assets/img/icons8_people_1.svg

<svg xmlns="http://www.w3.org/2000/svg" viewBox="0 0 50 50">
  <path d="M26.90625 5C18.039063 5 14.746094 11.851563 17.28125 17.65625C16.964844 17.867188 16.457031 18.527344 16.5625 19.6875C16.773438 21.796875 17.722656 22.300781 18.25 22.40625C18.460938 24.410156 19.730469 26.746094 20.46875 27.0625C20.46875 28.433594 20.449219 29.582031 20.34375 31.0625C18.726563 35.308594 8.390625 34.324219 7.0625 41.9375C7.003906 42.269531 7.347656 43 8.03125 43L42 43C43.015625 43 42.996094 42.25 42.9375 41.90625C41.585938 34.324219 31.273438 35.304688 29.65625 31.0625C29.550781 29.476563 29.53125 28.433594 29.53125 27.0625C30.269531 26.746094 31.445313 24.304688 31.65625 22.40625C32.183594 22.40625 33.027344 21.769531 33.34375 19.65625C33.449219 18.496094 33.015625 17.761719 32.59375 17.65625C34.28125 15.546875 33.976563 6.90625 27.75 6.90625 Z M 15.15625 10C8.480469 10.113281 5.554688 15.425781 7.5625 19.96875C7.347656 20.074219 6.925781 20.632813 7.03125 21.59375C7.246094 23.304688 7.882813 23.71875 8.3125 23.71875C8.523438 25.320313 9.46875 27.117188 10 27.4375C10 28.503906 10.011719 28.472656 9.90625 29.75C9.039063 32.484375 0 32.28125 0 39C0 39 0 40 1 40L5.53125 40C7.058594 35.679688 11.210938 34.015625 14.34375 32.78125C16.070313 32.101563 17.839844 31.414063 18.375 30.5625C18.433594 29.632813 18.464844 28.84375 18.46875 27.96875C17.519531 26.882813 16.8125 25.191406 16.46875 23.75C15.65625 23.148438 14.777344 21.992188 14.5625 19.84375C14.46875 18.824219 14.683594 17.976563 15.03125 17.3125C14.238281 14.847656 14.289063 12.273438 15.15625 10 Z M 38 10C37.042969 10 35.914063 10.078125 34.84375 10.25C35.644531 12.597656 35.675781 15.402344 34.96875 17.40625C35.28125 18.09375 35.425781 18.929688 35.34375 19.84375L35.3125 19.90625L35.3125 19.96875C35.015625 21.933594 34.292969 23.128906 33.4375 23.78125C33.113281 25.132813 32.453125 26.839844 31.53125 27.9375C31.535156 28.796875 31.566406 29.570313 31.625 30.5625C32.160156 31.414063 33.933594 32.101563 35.65625 32.78125C38.785156 34.011719 42.9375 35.679688 44.46875 40L49 40C50 40 50 39.03125 50 39.03125C50.003906 31.296875 41.441406 33.128906 40.15625 29.59375C40.046875 28.414063 40.03125 28.523438 40.03125 27.34375C40.566406 27.023438 41.550781 25.222656 41.65625 23.71875C42.085938 23.71875 42.722656 23.277344 42.9375 21.5625C43.042969 20.707031 42.726563 20.074219 42.40625 19.96875C43.695313 18.253906 43.484375 11.5 38.65625 11.5Z" fill="#5B5B5B" />
</svg>

<svg xmlns="http://www.w3.org/2000/svg" viewBox="0 0 50 50"><path d="M26.906 5c-8.867 0-12.16 6.852-9.625 12.656-.316.211-.824.871-.718 2.032.21 2.109 1.16 2.613 1.687 2.718.21 2.004 1.48 4.34 2.219 4.657a52.6 52.6 0 01-.125 4c-1.617 4.246-11.953 3.261-13.282 10.875-.058.332.286 1.062.97 1.062H42c1.016 0 .996-.75.938-1.094-1.352-7.582-11.665-6.601-13.282-10.843a54.013 54.013 0 01-.125-4c.739-.317 1.914-2.758 2.125-4.657.528 0 1.371-.636 1.688-2.75.105-1.16-.328-1.894-.75-2 1.687-2.11 1.383-10.75-4.844-10.75zm-11.75 5c-6.676.113-9.601 5.426-7.594 9.969-.214.105-.636.664-.53 1.625.214 1.71.85 2.125 1.28 2.125.211 1.601 1.157 3.398 1.688 3.718 0 1.067.012 1.036-.094 2.313C9.04 32.484 0 32.281 0 39c0 0 0 1 1 1h4.531c1.528-4.32 5.68-5.984 8.813-7.219 1.726-.68 3.496-1.367 4.031-2.218.059-.93.09-1.72.094-2.594-.95-1.086-1.657-2.778-2-4.219-.813-.602-1.692-1.758-1.907-3.906-.093-1.02.122-1.867.47-2.532-.794-2.464-.743-5.039.124-7.312zM38 10c-.957 0-2.086.078-3.156.25.8 2.348.832 5.152.125 7.156.312.688.457 1.524.375 2.438l-.032.062v.063c-.296 1.965-1.019 3.16-1.874 3.812-.325 1.352-.985 3.059-1.907 4.157.004.859.035 1.632.094 2.625.535.851 2.309 1.539 4.031 2.218 3.13 1.23 7.282 2.899 8.813 7.219H49c1 0 1-.969 1-.969.004-7.734-8.559-5.902-9.844-9.437-.11-1.18-.125-1.07-.125-2.25.535-.32 1.52-2.121 1.625-3.625.43 0 1.067-.442 1.282-2.157.105-.855-.211-1.488-.532-1.593 1.29-1.715 1.078-8.469-3.75-8.469z" fill="#5B5B5B"/></svg>
